img/image/design/map-pointer.svg

<svg xmlns="http://www.w3.org/2000/svg" fill="none" viewBox="0.61 0.81 63 92">
<path d="M32.1135 0.808594C14.7444 0.808594 0.613525 14.9952 0.613525 32.4328V32.5529C0.613525 38.8036 2.28331 44.9545 5.4423 50.3408L29.5691 91.4783C30.051 92.2998 30.9285 92.8054 31.8779 92.8086H31.8872C32.8332 92.8086 33.71 92.3097 34.1958 91.4943L58.6619 50.4287C61.9012 44.9914 63.6135 38.7686 63.6135 32.4326C63.6133 14.9952 49.4825 0.808594 32.1135 0.808594ZM31.887 46.8086C24.311 46.8086 18.1476 40.6207 18.1476 33.015C18.1476 25.4093 24.3112 19.2215 31.887 19.2215C39.4628 19.2215 45.6264 25.4093 45.6264 33.015C45.6264 40.6207 39.4628 46.8086 31.887 46.8086Z" fill="#533519"/>
<circle cx="32.1135" cy="32.3086" r="24.3018" fill="white"/>
<path d="M35.6951 50.0513C39.0528 48.7257 41.4947 45.585 41.8406 41.8325H47.274C47.2943 41.8733 47.3147 41.9141 47.3554 41.9549C44.771 46.0541 40.5993 49.052 35.6951 50.0513ZM16.8107 41.9345C16.831 41.9141 16.831 41.8733 16.8514 41.8325H22.3254C22.6714 45.5646 25.1133 48.7053 28.471 50.0513C23.5667 49.052 19.3747 46.0541 16.7903 41.9345H16.8107ZM14.9792 26.6593C14.8978 27.1488 14.8571 27.6586 14.8571 28.1685C14.8571 31.5743 16.5868 34.5722 19.2323 36.3465L16.4851 41.1595C16.4444 41.1391 16.3833 41.1391 16.3426 41.1391C14.8978 38.5287 14.0635 35.5511 14.0635 32.3697C14.0635 30.3914 14.3891 28.4744 14.9792 26.7001V26.6593ZM31.6048 14.2801C31.6455 14.3413 31.6862 14.4025 31.7269 14.4433L28.939 19.3378C27.6367 18.7056 26.1918 18.3589 24.6656 18.3589C22.2644 18.3589 20.0666 19.2359 18.3573 20.6839C21.5725 16.8906 26.3139 14.4433 31.6252 14.3005L31.6048 14.2801ZM45.6664 20.4595C43.9773 19.0931 41.8406 18.257 39.5004 18.257C37.9539 18.257 36.5091 18.6241 35.2067 19.2563L32.4595 14.4433C32.5002 14.4025 32.5612 14.3413 32.5816 14.2801C37.7911 14.4229 42.4511 16.7886 45.6664 20.4595ZM41.3523 37.7129C42.4918 37.4886 43.55 37.0807 44.5064 36.5097L47.274 41.3634H41.8813C41.8813 41.2207 41.9017 41.0779 41.9017 40.9352C41.9017 39.8135 41.7185 38.7326 41.3523 37.7129ZM37.4858 41.3634L39.4597 37.8965H39.4801C40.0499 37.8965 40.6197 37.8353 41.1691 37.7537C41.515 38.753 41.7185 39.8135 41.7185 40.9352C41.7185 41.0779 41.7185 41.2207 41.6982 41.3634H37.4858ZM32.5816 50.398C32.5409 50.3368 32.5002 50.2757 32.4391 50.2145L37.2213 41.8325H41.6778C41.2912 45.8909 38.3812 49.2356 34.5352 50.2553C33.9043 50.3368 33.2531 50.398 32.6019 50.4184L32.5816 50.398ZM26.9855 41.8325L31.7676 50.2145C31.7066 50.2553 31.6659 50.3164 31.6252 50.398C30.974 50.3776 30.3228 50.3368 29.692 50.2349C25.8459 49.2356 22.9156 45.8909 22.5493 41.8121H27.0058L26.9855 41.8325ZM22.4882 40.9148C22.4882 39.8339 22.6714 38.7938 22.997 37.8353C23.5464 37.9372 24.0958 37.978 24.6656 37.978C24.7063 37.978 24.747 37.978 24.7877 37.978L26.7209 41.3634H22.5086C22.5086 41.2207 22.4882 41.0779 22.4882 40.9352V40.9148ZM22.8138 37.7945C22.4882 38.7734 22.3051 39.8135 22.3051 40.9148C22.3051 41.0575 22.3051 41.2003 22.3254 41.3431H16.9328L19.6596 36.5708C20.6161 37.1419 21.6946 37.5702 22.8342 37.7945H22.8138ZM21.8167 32.7571L23.6481 35.959C23.3429 36.4893 23.0784 37.0399 22.8749 37.6109C21.7556 37.407 20.6975 36.9787 19.741 36.4077L21.837 32.7368L21.8167 32.7571ZM31.9101 21.8463C31.6252 22.193 31.3606 22.5805 31.1164 22.968H27.4128L29.285 19.7049C30.2821 20.2556 31.1775 20.9898 31.9304 21.8463H31.9101ZM36.7736 22.968H32.9682C32.724 22.5805 32.4391 22.193 32.1543 21.8463C32.9072 20.949 33.8229 20.1944 34.8607 19.6234L36.7736 22.9884V22.968ZM40.5383 35.959L42.3697 32.7571L44.4047 36.3261C43.4483 36.8971 42.4104 37.305 41.2912 37.509C41.0877 36.9583 40.8435 36.4485 40.5586 35.9386L40.5383 35.959ZM40.4365 36.1426C40.7011 36.5912 40.9249 37.0603 41.0877 37.5498C40.579 37.6313 40.0702 37.6925 39.5411 37.6925L40.4162 36.1426H40.4365ZM35.0642 36.6116L37.262 32.7979C38.4219 33.5321 39.3987 34.5314 40.1516 35.6735L39.0121 37.6721C37.5876 37.6109 36.2649 37.2235 35.0642 36.6116ZM32.3374 41.3431L34.9828 36.7748C36.1835 37.3866 37.5062 37.7741 38.9103 37.8557L36.916 41.3431H32.3374ZM32.1746 41.8121H36.6515L32.1746 49.6842V41.8121ZM31.9915 41.8121V49.6842L27.5146 41.8121H31.9915ZM29.2239 36.8156L31.8287 41.3431H27.25L25.3168 37.9372C26.7209 37.8353 28.0436 37.4478 29.2239 36.8156ZM24.3197 28.3316H24.34L26.8227 32.6144C25.6627 33.3486 24.686 34.3275 23.933 35.4696L22.1016 32.2473L24.34 28.3112L24.3197 28.3316ZM23.933 28.0665L21.8167 31.7782L17.1363 23.5594L23.933 28.0665ZM24.0144 27.9034L17.238 23.4167H26.5581L23.9941 27.9034H24.0144ZM29.6716 28.0461V28.0665H24.4621L27.1076 23.4167H30.8112C30.0786 24.8035 29.6513 26.3738 29.6513 28.0257L29.6716 28.0461ZM39.6836 28.0665H34.4334C34.4131 26.3942 33.9857 24.8035 33.2328 23.4167H37.0381L39.6836 28.0665ZM40.1313 27.883L37.5876 23.4371H46.9891L40.1313 27.883ZM40.2127 28.0461L46.9891 23.641L42.3494 31.7986L40.2127 28.0461ZM39.826 28.3316L42.0848 32.2677L40.2534 35.49C39.5004 34.3479 38.5033 33.369 37.3637 32.6348L39.8464 28.3316H39.826ZM34.3317 31.35C34.3317 31.3296 34.3317 31.3296 34.3317 31.3092C34.3317 31.1052 34.2096 30.9217 34.0468 30.8401C34.2503 30.1059 34.3724 29.3513 34.4131 28.556H39.1545L36.9364 32.3901C36.1224 31.921 35.2677 31.5743 34.3317 31.35ZM32.4595 34.6334C32.5612 34.5314 32.6019 34.4091 32.6019 34.2663C32.6019 34.1439 32.5612 34.042 32.5002 33.9604C32.9886 33.3078 33.3752 32.594 33.6805 31.8394C33.7008 31.8394 33.7415 31.8394 33.7619 31.8394C33.9857 31.8394 34.1689 31.6967 34.2503 31.5131C35.166 31.7374 36.0207 32.0841 36.8143 32.5328L34.6165 36.3669C33.8026 35.8978 33.07 35.3064 32.4391 34.6334H32.4595ZM29.8141 31.5335C29.8955 31.7171 30.0786 31.8394 30.3024 31.8394C30.3431 31.8394 30.3838 31.8394 30.4245 31.819C30.7501 32.5736 31.1571 33.2874 31.6252 33.9196C31.5641 34.0012 31.5234 34.1236 31.5234 34.2459C31.5234 34.4091 31.5845 34.5518 31.7066 34.6538C31.0757 35.3472 30.3431 35.9386 29.5292 36.4281L27.2907 32.5328C28.064 32.0841 28.9187 31.7374 29.8141 31.5335ZM30.0786 30.8197C29.8955 30.9013 29.7734 31.0848 29.7734 31.3092C29.7734 31.3296 29.7734 31.35 29.7734 31.3704C28.8576 31.5947 28.0029 31.9414 27.2093 32.3901L24.9912 28.556H29.692C29.7327 29.3309 29.8751 30.1059 30.0786 30.8197ZM33.8026 30.7585C33.5584 30.7585 33.3345 30.9217 33.2735 31.1664C32.8868 31.1256 32.4798 31.0848 32.0729 31.0848C31.6455 31.0848 31.2385 31.1052 30.8315 31.1664C30.7705 30.9421 30.567 30.7585 30.3024 30.7585C30.2821 30.7585 30.2617 30.7585 30.2414 30.7585C30.0379 30.0447 29.8955 29.3106 29.8548 28.5356H34.2299C34.1892 29.3106 34.0671 30.0447 33.884 30.7585C33.8636 30.7585 33.8229 30.7585 33.8026 30.7585ZM32.3984 33.8176C32.317 33.7565 32.195 33.7157 32.0729 33.7157C31.9508 33.7157 31.849 33.7565 31.7676 33.8176C31.2996 33.1854 30.9129 32.492 30.5873 31.7578C30.7298 31.6763 30.8315 31.5131 30.8315 31.35C31.2385 31.2888 31.6455 31.2684 32.0525 31.2684C32.4595 31.2684 32.8461 31.2888 33.2328 31.35C33.2531 31.5335 33.3549 31.6967 33.5177 31.7986C33.2124 32.5328 32.8258 33.2058 32.3781 33.838L32.3984 33.8176ZM32.0729 40.8332L29.6309 36.5912C30.4652 36.1018 31.2182 35.49 31.8694 34.7762C31.9304 34.7966 32.0118 34.8169 32.0932 34.8169C32.1746 34.8169 32.256 34.7966 32.3374 34.7558C32.9886 35.4492 33.7415 36.061 34.5758 36.5301L32.0932 40.8332H32.0729ZM31.2996 22.9476C31.5234 22.6009 31.7473 22.2746 32.0118 21.9687C32.2764 22.2746 32.5205 22.6009 32.724 22.9476H31.2996ZM33.0089 23.4167C33.7822 24.7831 34.2299 26.3738 34.2299 28.0665H29.8344V28.0461C29.8344 26.3738 30.2617 24.8035 31.0147 23.4371H33.0089V23.4167ZM24.6453 37.7741H24.6249C24.0755 37.7741 23.5464 37.7333 23.0173 37.6313C23.2004 37.1011 23.4446 36.6116 23.7092 36.1222L24.6453 37.7741ZM23.9941 35.6735C24.747 34.511 25.7238 33.5321 26.8837 32.7979L29.1222 36.6728C27.9419 37.305 26.5988 37.6925 25.1947 37.7741L24.0144 35.6939L23.9941 35.6735ZM49.0647 28.0461C49.0647 31.3907 47.3554 34.3275 44.771 36.061L42.6139 32.2677L47.5996 23.5186C47.6606 23.5594 47.742 23.5798 47.8234 23.5798C47.8234 23.5798 47.8234 23.5798 47.8438 23.5798C48.149 24.1305 48.4135 24.6811 48.6577 25.2521C48.9223 26.1291 49.0647 27.0672 49.0647 28.0461ZM46.46 21.4588C46.7652 21.8667 47.0705 22.295 47.335 22.7437C47.2943 22.8048 47.274 22.866 47.274 22.9476H37.2823L35.2474 19.3786C36.5091 18.7668 37.9335 18.3997 39.4394 18.3997C42.2069 18.3997 44.6896 19.5826 46.46 21.4588ZM34.7386 19.4398C33.7008 20.0109 32.7647 20.7858 31.9915 21.6832C31.2385 20.8266 30.3431 20.0924 29.3257 19.5214L32.0525 14.7288L34.7386 19.4194V19.4398ZM24.6249 18.5017C26.1308 18.5017 27.5553 18.8484 28.8169 19.4602L26.8227 22.9476H16.8107C16.8107 22.8864 16.7903 22.8252 16.7496 22.7641C16.9735 22.397 17.2177 22.0503 17.4619 21.7036C19.2323 19.7457 21.776 18.5221 24.6046 18.5221L24.6249 18.5017ZM15.4269 25.3745C15.6915 24.7423 15.9764 24.1509 16.3019 23.5594C16.3833 23.5594 16.4647 23.539 16.5258 23.4982L21.5114 32.2677L19.2933 36.163C16.7089 34.4295 15.0199 31.4927 15.0199 28.1481C15.0199 27.1896 15.1624 26.2514 15.4269 25.3745ZM47.8641 41.0371C47.8234 41.0371 47.7827 41.0167 47.742 41.0167C47.7013 41.0167 47.6606 41.0167 47.6199 41.0371L44.8727 36.2241C47.5182 34.4703 49.2479 31.4519 49.2479 28.0461C49.2479 27.5159 49.2072 26.9856 49.1258 26.4758C49.7566 28.3112 50.1026 30.2691 50.1026 32.3289C50.1026 35.49 49.2886 38.4675 47.8641 41.0575V41.0371ZM50.591 32.3085C50.591 29.1066 49.7973 26.0475 48.2915 23.3351C48.3525 23.2535 48.3932 23.1311 48.3932 23.0292C48.3932 22.7233 48.149 22.4785 47.8438 22.4785C47.8234 22.4785 47.8031 22.4785 47.7827 22.4785C47.0501 21.2957 46.1751 20.1944 45.178 19.1951C41.7999 15.8097 37.3434 13.8926 32.5816 13.7703C32.5002 13.5867 32.317 13.4644 32.0932 13.4644C31.8694 13.4644 31.6862 13.5867 31.6048 13.7703C26.843 13.8926 22.3865 15.8097 19.0084 19.1951C18.0113 20.1944 17.1363 21.2957 16.4037 22.4581C16.3833 22.4581 16.3426 22.4581 16.3223 22.4581C16.0171 22.4581 15.7729 22.7029 15.7729 23.0088C15.7729 23.1311 15.8136 23.2535 15.895 23.3351C14.3891 26.0475 13.5955 29.1066 13.5955 32.3085C13.5955 35.5103 14.4094 38.5899 15.9153 41.3023C15.8543 41.3838 15.8136 41.5062 15.8136 41.6286C15.8136 41.9345 16.0578 42.1792 16.363 42.1792C16.3833 42.1792 16.4037 42.1792 16.4444 42.1792C17.177 43.3417 18.052 44.443 19.0288 45.4219C22.4068 48.8073 26.8634 50.7243 31.6252 50.8467C31.7066 51.0302 31.8897 51.1526 32.1136 51.1526C32.3374 51.1526 32.5205 51.0302 32.6019 50.8467C37.3637 50.7243 41.8203 48.8073 45.1983 45.4219C46.2158 44.4022 47.0908 43.3009 47.8234 42.0976C48.1083 42.0772 48.3321 41.8325 48.3321 41.547C48.3321 41.4654 48.3118 41.3838 48.2915 41.3227C49.8177 38.5899 50.6316 35.5103 50.6316 32.2881L50.591 32.3085Z" fill="#533519"/>
</svg>

<svg xmlns="http://www.w3.org/2000/svg" fill="none" viewBox="0.61 0.81 63 92"><path d="M32.114.809c-17.37 0-31.5 14.186-31.5 31.624v.12A35.19 35.19 0 0 0 5.442 50.34L29.57 91.478a2.688 2.688 0 0 0 2.309 1.33h.01c.945 0 1.822-.498 2.308-1.314L58.662 50.43a35.175 35.175 0 0 0 4.952-17.996c0-17.438-14.131-31.624-31.5-31.624Zm-.227 46c-7.576 0-13.74-6.188-13.74-13.794 0-7.606 6.164-13.794 13.74-13.794 7.576 0 13.74 6.188 13.74 13.794 0 7.606-6.164 13.794-13.74 13.794Z" fill="#533519"/><circle cx="32.114" cy="32.309" r="24.302" fill="#fff"/><path d="M35.695 50.051a9.806 9.806 0 0 0 6.146-8.218h5.433c.02.04.04.081.081.122-2.584 4.1-6.756 7.097-11.66 8.096Zm-18.884-8.117c.02-.02.02-.06.04-.101h5.474c.346 3.732 2.788 6.872 6.146 8.218-4.904-.999-9.096-3.997-11.68-8.117h.02ZM14.979 26.66c-.081.49-.122 1-.122 1.51 0 3.405 1.73 6.403 4.375 8.177l-2.747 4.814c-.04-.02-.102-.02-.142-.02a18.032 18.032 0 0 1-2.28-8.77c0-1.979.326-3.896.916-5.67v-.04ZM31.605 14.28c.04.061.081.123.122.163l-2.788 4.895a9.74 9.74 0 0 0-4.273-.98 9.726 9.726 0 0 0-6.309 2.326c3.216-3.793 7.957-6.24 13.268-6.384l-.02-.02Zm14.061 6.18c-1.689-1.367-3.825-2.203-6.166-2.203a9.777 9.777 0 0 0-4.293 1l-2.748-4.814a.492.492 0 0 0 .123-.163c5.21.143 9.87 2.509 13.084 6.18Zm-4.314 17.253a9.832 9.832 0 0 0 3.154-1.203l2.768 4.853h-5.393c0-.142.02-.285.02-.428a9.49 9.49 0 0 0-.549-3.222Zm-3.866 3.65 1.974-3.466h.02c.57 0 1.14-.062 1.69-.143.345.999.548 2.06.548 3.181 0 .143 0 .286-.02.428h-4.212Zm-4.904 9.035a1.118 1.118 0 0 0-.143-.184l4.782-8.381h4.457c-.387 4.058-3.297 7.403-7.143 8.422-.63.082-1.282.143-1.933.163l-.02-.02Zm-5.597-8.566 4.783 8.383a.444.444 0 0 0-.143.183 15.144 15.144 0 0 1-1.933-.163c-3.846-1-6.776-4.344-7.143-8.423h4.457l-.02.02Zm-4.497-.917c0-1.081.183-2.121.509-3.08.55.102 1.099.143 1.669.143h.122l1.933 3.385h-4.212c0-.142-.02-.285-.02-.428v-.02Zm.326-3.12a9.83 9.83 0 0 0-.509 3.12c0 .142 0 .285.02.428h-5.392l2.727-4.772a9.98 9.98 0 0 0 3.174 1.224h-.02Zm-.997-5.038 1.831 3.202c-.305.53-.57 1.08-.773 1.652a9.441 9.441 0 0 1-3.134-1.203l2.096-3.671-.02.02Zm10.093-10.91c-.285.346-.55.733-.794 1.121h-3.703l1.872-3.263a9.94 9.94 0 0 1 2.645 2.141h-.02Zm4.864 1.121h-3.806c-.244-.387-.529-.775-.814-1.122a9.524 9.524 0 0 1 2.707-2.223l1.913 3.365v-.02Zm3.764 12.991 1.832-3.202 2.035 3.57a9.299 9.299 0 0 1-3.114 1.182c-.203-.55-.447-1.06-.732-1.57l-.02.02Zm-.101.184c.264.448.488.917.65 1.407a9.7 9.7 0 0 1-1.546.143l.875-1.55h.02Zm-5.373.469 2.198-3.814c1.16.734 2.137 1.733 2.89 2.875l-1.14 2a9.551 9.551 0 0 1-3.948-1.061Zm-2.727 4.731 2.646-4.568c1.2.612 2.523 1 3.927 1.08l-1.994 3.488h-4.579Zm-.162.47h4.477l-4.477 7.871v-7.872Zm-.183 0v7.871l-4.477-7.872h4.476Zm-2.768-4.997 2.605 4.527H27.25l-1.933-3.406a9.744 9.744 0 0 0 3.907-1.121Zm-4.904-8.484h.02l2.483 4.282a9.655 9.655 0 0 0-2.89 2.856l-1.831-3.223 2.238-3.936-.02.02Zm-.387-.265-2.116 3.711-4.68-8.219 6.796 4.508Zm.081-.164-6.776-4.486h9.32l-2.564 4.486h.02Zm5.658.143v.02h-5.21l2.646-4.65h3.703a9.857 9.857 0 0 0-1.16 4.61l.02.02Zm10.012.02h-5.25a9.991 9.991 0 0 0-1.201-4.65h3.805l2.646 4.65Zm.447-.183-2.543-4.446h9.401l-6.858 4.446Zm.082.163 6.776-4.405-4.64 8.158-2.136-3.753Zm-.387.286 2.259 3.936-1.832 3.222a9.895 9.895 0 0 0-2.89-2.855l2.483-4.303h-.02Zm-5.494 3.018v-.04a.533.533 0 0 0-.285-.47c.203-.734.325-1.489.366-2.284h4.742l-2.219 3.834a9.67 9.67 0 0 0-2.604-1.04Zm-1.873 3.283a.492.492 0 0 0 .143-.367.502.502 0 0 0-.102-.306 9.41 9.41 0 0 0 1.18-2.12h.082a.54.54 0 0 0 .488-.327c.916.224 1.77.571 2.564 1.02l-2.197 3.834a9.492 9.492 0 0 1-2.178-1.734h.02Zm-2.645-3.1a.522.522 0 0 0 .488.306c.041 0 .082 0 .122-.02.326.755.733 1.468 1.201 2.1a.565.565 0 0 0-.102.327c0 .163.061.306.184.408a9.66 9.66 0 0 1-2.178 1.774l-2.238-3.895a9.06 9.06 0 0 1 2.523-1Zm.265-.713a.523.523 0 0 0-.306.49v.06c-.915.225-1.77.571-2.564 1.02l-2.218-3.834h4.701c.04.775.183 1.55.387 2.264Zm3.724-.061a.544.544 0 0 0-.53.407c-.386-.04-.793-.081-1.2-.081-.428 0-.835.02-1.242.081a.549.549 0 0 0-.529-.407h-.06a9.961 9.961 0 0 1-.387-2.223h4.375c-.04.775-.163 1.509-.346 2.223h-.081Zm-1.405 3.059a.562.562 0 0 0-.325-.102.5.5 0 0 0-.305.102 10.813 10.813 0 0 1-1.18-2.06.49.49 0 0 0 .243-.408 8.186 8.186 0 0 1 1.222-.082c.407 0 .793.02 1.18.082.02.183.122.347.285.449a10.484 10.484 0 0 1-1.14 2.039l.02-.02Zm-.325 7.015-2.442-4.242a9.613 9.613 0 0 0 2.238-1.815.73.73 0 0 0 .224.04.54.54 0 0 0 .244-.06 9.448 9.448 0 0 0 2.239 1.774l-2.483 4.303h-.02ZM31.3 22.948c.223-.347.447-.673.712-.98.264.307.508.633.712.98H31.3Zm1.709.469a9.425 9.425 0 0 1 1.22 4.65h-4.395v-.02c0-1.673.428-3.244 1.18-4.61h1.995v-.02Zm-8.364 14.357h-.02c-.55 0-1.079-.04-1.608-.143.183-.53.428-1.02.692-1.509l.936 1.652Zm-.65-2.1a9.49 9.49 0 0 1 2.889-2.876l2.238 3.875a9.5 9.5 0 0 1-3.927 1.101l-1.18-2.08-.02-.02Zm25.07-7.628c0 3.345-1.71 6.282-4.294 8.015l-2.157-3.793 4.986-8.75a.41.41 0 0 0 .223.062h.02c.306.55.57 1.101.815 1.672.264.877.407 1.815.407 2.794ZM46.46 21.46c.305.408.61.836.875 1.285a.345.345 0 0 0-.061.204h-9.992l-2.035-3.57a9.604 9.604 0 0 1 4.192-.978c2.768 0 5.25 1.183 7.021 3.059Zm-11.721-2.02a10.06 10.06 0 0 0-2.747 2.244 10.183 10.183 0 0 0-2.666-2.162l2.727-4.792 2.686 4.69v.02Zm-10.114-.937a9.59 9.59 0 0 1 4.192.958l-1.994 3.488H16.81a.33.33 0 0 0-.061-.184c.224-.367.468-.714.712-1.06a9.598 9.598 0 0 1 7.143-3.182l.02-.02Zm-9.198 6.873c.264-.633.55-1.224.875-1.816a.41.41 0 0 0 .224-.06l4.985 8.769-2.218 3.895a9.618 9.618 0 0 1-4.273-8.015c0-.958.142-1.897.407-2.773Zm32.437 15.662c-.04 0-.081-.02-.122-.02-.04 0-.081 0-.122.02l-2.747-4.813a9.795 9.795 0 0 0 4.375-8.178c0-.53-.04-1.06-.122-1.57.63 1.835.977 3.793.977 5.853 0 3.161-.814 6.139-2.239 8.728v-.02Zm2.727-8.728c0-3.202-.794-6.261-2.3-8.974a.55.55 0 0 0 .102-.306.548.548 0 0 0-.55-.55h-.06a18.285 18.285 0 0 0-2.605-3.284 18.355 18.355 0 0 0-12.596-5.425.522.522 0 0 0-.489-.306.522.522 0 0 0-.488.306 18.355 18.355 0 0 0-12.597 5.425c-.997 1-1.872 2.1-2.604 3.263h-.082a.548.548 0 0 0-.55.55c0 .123.042.245.123.327-1.506 2.712-2.3 5.772-2.3 8.974 0 3.201.814 6.28 2.32 8.993a.565.565 0 0 0-.101.327c0 .306.244.55.549.55h.081a18.824 18.824 0 0 0 2.585 3.243 18.355 18.355 0 0 0 12.596 5.425.522.522 0 0 0 .489.306.522.522 0 0 0 .488-.306 18.355 18.355 0 0 0 12.596-5.425 17.79 17.79 0 0 0 2.625-3.324.554.554 0 0 0 .51-.551.735.735 0 0 0-.041-.224 18.443 18.443 0 0 0 2.34-9.035l-.041.02Z" fill="#533519"/></svg>
